public/images/project-ux-research-workingbrain/slide5-es.svg

<svg xmlns="http://www.w3.org/2000/svg" xmlns:xlink="http://www.w3.org/1999/xlink" width="1739" zoomAndPan="magnify" viewBox="0 0 1304.25 660.749985" height="881" preserveAspectRatio="xMidYMid meet" version="1.2"><defs><clipPath id="d31bb32d69"><path d="M 0 0.0664062 L 1303.5 0.0664062 L 1303.5 660.433594 L 0 660.433594 Z M 0 0.0664062 "/></clipPath><clipPath id="e3b7cfc7e7"><path d="M 927 0.0664062 L 1303.5 0.0664062 L 1303.5 224 L 927 224 Z M 927 0.0664062 "/></clipPath><clipPath id="4b7a2bc253"><path d="M 0 528 L 276 528 L 276 660.433594 L 0 660.433594 Z M 0 528 "/></clipPath><clipPath id="eda7ced16e"><path d="M -337.664062 535.375 L 211.144531 391.234375 L 337.960938 874.070312 L -210.851562 1018.210938 Z M -337.664062 535.375 "/></clipPath><clipPath id="a3e4f4d019"><path d="M -337.664062 535.375 L 211.144531 391.234375 L 337.960938 874.070312 L -210.851562 1018.210938 Z M -337.664062 535.375 "/></clipPath><clipPath id="990bbcd00a"><path d="M 0 0.0664062 L 434 0.0664062 L 434 131 L 0 131 Z M 0 0.0664062 "/></clipPath><clipPath id="4da337d5e8"><path d="M -179.609375 -274.355469 L 369.203125 -418.5 L 496.015625 64.335938 L -52.792969 208.480469 Z M -179.609375 -274.355469 "/></clipPath><clipPath id="eabbe4a554"><path d="M -179.609375 -274.355469 L 369.203125 -418.5 L 496.015625 64.335938 L -52.792969 208.480469 Z M -179.609375 -274.355469 "/></clipPath><clipPath id="20f446fb11"><path d="M 981 487 L 1303.5 487 L 1303.5 660.433594 L 981 660.433594 Z M 981 487 "/></clipPath><clipPath id="c34f36a59d"><path d="M 1009.066406 413.238281 L 1569.273438 503.453125 L 1489.90625 996.316406 L 929.699219 906.101562 Z M 1009.066406 413.238281 "/></clipPath><clipPath id="a5065a7a75"><path d="M 1009.066406 413.238281 L 1569.273438 503.453125 L 1489.90625 996.316406 L 929.699219 906.101562 Z M 1009.066406 413.238281 "/></clipPath></defs><g id="c1757ce4d6"><g clip-rule="nonzero" clip-path="url(#d31bb32d69)"><path style=" stroke:none;fill-rule:nonzero;fill:#ffffff;fill-opacity:1;" d="M 0 0.0664062 L 1303.5 0.0664062 L 1303.5 660.433594 L 0 660.433594 Z M 0 0.0664062 "/><path style=" stroke:none;fill-rule:nonzero;fill:#ffffff;fill-opacity:1;" d="M 0 0.0664062 L 1303.5 0.0664062 L 1303.5 660.433594 L 0 660.433594 Z M 0 0.0664062 "/></g><g clip-rule="nonzero" clip-path="url(#e3b7cfc7e7)"><path style=" stroke:none;fill-rule:evenodd;fill:#e0eaff;fill-opacity:1;" d="M 1243.519531 -270.835938 C 1222.875 -266.632812 1209.960938 -262.417969 1197.066406 -250.40625 C 1155.761719 -213.75 1152.320312 -179.5 1120.5 -129.019531 C 1080.058594 -63.519531 1061.136719 -55.707031 1008.660156 -10.027344 C 1001.773438 -4.625 996.609375 0.792969 990.597656 6.199219 C 941.5625 48.867188 897.679688 131.191406 952.738281 184.074219 C 963.925781 194.289062 975.964844 202.707031 992.316406 211.109375 C 1007.796875 218.921875 1022.429688 227.933594 1044.796875 221.933594 C 1060.289062 217.730469 1074.90625 207.503906 1088.679688 200.300781 C 1103.3125 192.492188 1117.929688 184.074219 1135.992188 180.464844 C 1153.195312 176.859375 1178.15625 175.0625 1196.214844 178.667969 C 1233.214844 185.882812 1285.691406 232.753906 1351.082031 201.503906 C 1441.417969 158.238281 1400.976562 88.523438 1431.949219 17.007812 C 1443.136719 -9.433594 1468.085938 -49.695312 1452.59375 -86.960938 C 1443.125 -110.996094 1427.644531 -118.210938 1418.179688 -126.628906 C 1413.011719 -131.4375 1423.34375 -129.628906 1406.988281 -138.046875 C 1400.101562 -141.652344 1380.320312 -160.878906 1373.433594 -171.703125 C 1369.128906 -178.308594 1366.546875 -185.523438 1363.105469 -194.535156 C 1351.054688 -229.394531 1330.410156 -244.417969 1298.578125 -261.835938 C 1280.515625 -271.457031 1266.742188 -275.0625 1243.519531 -270.847656 Z M 1243.519531 -270.835938 "/></g><g clip-rule="nonzero" clip-path="url(#4b7a2bc253)"><g clip-rule="nonzero" clip-path="url(#eda7ced16e)"><g clip-rule="nonzero" clip-path="url(#a3e4f4d019)"><path style=" stroke:none;fill-rule:nonzero;fill:#f0cdcd;fill-opacity:1;" d="M -241.953125 596.496094 C -249.8125 608.21875 -255.777344 621.992188 -259.347656 638.164062 C -282.402344 742.519531 -236.945312 918.808594 -112.964844 937.058594 C -60.265625 944.8125 -0.4375 938.101562 52.480469 934.070312 C 131.792969 928.023438 190.847656 900.132812 228.761719 826.515625 C 258.839844 768.117188 286.230469 693.710938 271.441406 627.238281 C 263.417969 591.164062 240.054688 557.066406 205.722656 543.394531 C 177.441406 532.136719 145.8125 535.613281 115.398438 536.765625 C 11.613281 540.695312 -171.765625 491.828125 -241.953125 596.496094 "/></g></g></g><g clip-rule="nonzero" clip-path="url(#990bbcd00a)"><g clip-rule="nonzero" clip-path="url(#4da337d5e8)"><g clip-rule="nonzero" clip-path="url(#eabbe4a554)"><path style=" stroke:none;fill-rule:nonzero;fill:#f0e8cd;fill-opacity:1;" d="M -83.894531 -213.234375 C -91.753906 -201.515625 -97.71875 -187.738281 -101.292969 -171.566406 C -124.34375 -67.214844 -78.890625 109.074219 45.09375 127.324219 C 97.789062 135.082031 157.617188 128.371094 210.539062 124.335938 C 289.851562 118.292969 348.90625 90.398438 386.820312 16.785156 C 416.894531 -41.613281 444.285156 -116.019531 429.496094 -182.492188 C 421.472656 -218.566406 398.113281 -252.664062 363.78125 -266.335938 C 335.5 -277.597656 303.871094 -274.121094 273.457031 -272.96875 C 169.671875 -269.039062 -13.710938 -317.90625 -83.894531 -213.234375 "/></g></g></g><g clip-rule="nonzero" clip-path="url(#20f446fb11)"><g clip-rule="nonzero" clip-path="url(#c34f36a59d)"><g clip-rule="nonzero" clip-path="url(#a5065a7a75)"><path style=" stroke:none;fill-rule:nonzero;fill:#eaf5e6;fill-opacity:1;" d="M 1071.871094 507.859375 C 1059.941406 515.398438 1048.910156 525.582031 1039.101562 538.925781 C 975.800781 625.03125 946.050781 804.640625 1052.050781 871.488281 C 1097.105469 899.902344 1154.53125 917.96875 1204.558594 935.691406 C 1279.539062 962.25 1344.828125 960.632812 1409.28125 908.648438 C 1460.414062 867.410156 1515.566406 810.449219 1528.933594 743.675781 C 1536.191406 707.4375 1528.621094 666.804688 1502.753906 640.410156 C 1481.445312 618.671875 1451.117188 609.054688 1422.835938 597.804688 C 1326.335938 559.410156 1178.398438 440.53125 1071.871094 507.859375 "/></g></g></g><g style="fill:#424141;fill-opacity:1;"><g transform="translate(465.390954, 308.512551)"><path style="stroke:none" d="M 57.96875 0 L 54.921875 -38.203125 L 54.53125 -38.203125 L 41.328125 -0.390625 L 32.578125 -0.390625 L 19.375 -38.203125 L 18.984375 -38.203125 L 15.9375 0 L 1.25 0 L 7.03125 -64.453125 L 22.65625 -64.453125 L 36.953125 -27.265625 L 51.25 -64.453125 L 66.875 -64.453125 L 72.65625 0 Z M 57.96875 0 "/></g></g><g style="fill:#424141;fill-opacity:1;"><g transform="translate(539.291639, 308.512551)"><path style="stroke:none" d="M 37.421875 -64.453125 L 63.4375 0 L 47.65625 0 L 42.890625 -12.890625 L 18.359375 -12.890625 L 13.59375 0 L -2.1875 0 L 23.828125 -64.453125 Z M 37.890625 -25.78125 L 30.703125 -44.53125 L 30.546875 -44.53125 L 23.359375 -25.78125 Z M 37.890625 -25.78125 "/></g></g><g style="fill:#424141;fill-opacity:1;"><g transform="translate(600.537024, 308.512551)"><path style="stroke:none" d="M 4.6875 -64.453125 L 28.203125 -64.453125 C 34.765625 -64.453125 40.078125 -62.757812 44.140625 -59.375 C 48.203125 -55.988281 50.234375 -51.066406 50.234375 -44.609375 C 50.234375 -38.148438 48.175781 -33.082031 44.0625 -29.40625 C 39.945312 -25.738281 34.660156 -23.90625 28.203125 -23.90625 L 19.375 -23.90625 L 19.375 0 L 4.6875 0 Z M 19.375 -35.625 L 23.515625 -35.625 C 26.796875 -35.625 29.488281 -36.285156 31.59375 -37.609375 C 33.707031 -38.941406 34.765625 -41.117188 34.765625 -44.140625 C 34.765625 -47.210938 33.707031 -49.410156 31.59375 -50.734375 C 29.488281 -52.066406 26.796875 -52.734375 23.515625 -52.734375 L 19.375 -52.734375 Z M 19.375 -35.625 "/></g></g><g style="fill:#424141;fill-opacity:1;"><g transform="translate(652.564354, 308.512551)"><path style="stroke:none" d="M 37.421875 -64.453125 L 63.4375 0 L 47.65625 0 L 42.890625 -12.890625 L 18.359375 -12.890625 L 13.59375 0 L -2.1875 0 L 23.828125 -64.453125 Z M 37.890625 -25.78125 L 30.703125 -44.53125 L 30.546875 -44.53125 L 23.359375 -25.78125 Z M 37.890625 -25.78125 "/></g></g><g style="fill:#424141;fill-opacity:1;"><g transform="translate(713.809739, 308.512551)"><path style="stroke:none" d=""/></g></g><g style="fill:#424141;fill-opacity:1;"><g transform="translate(735.136265, 308.512551)"><path style="stroke:none" d="M 4.6875 -64.453125 L 23.359375 -64.453125 C 32.316406 -64.453125 39.972656 -61.390625 46.328125 -55.265625 C 52.679688 -49.148438 55.859375 -41.484375 55.859375 -32.265625 C 55.859375 -22.992188 52.691406 -15.296875 46.359375 -9.171875 C 40.035156 -3.054688 32.367188 0 23.359375 0 L 4.6875 0 Z M 19.375 -13.125 L 21.640625 -13.125 C 27.003906 -13.125 31.390625 -14.929688 34.796875 -18.546875 C 38.210938 -22.171875 39.945312 -26.71875 40 -32.1875 C 40 -37.65625 38.289062 -42.210938 34.875 -45.859375 C 31.46875 -49.503906 27.054688 -51.328125 21.640625 -51.328125 L 19.375 -51.328125 Z M 19.375 -13.125 "/></g></g><g style="fill:#424141;fill-opacity:1;"><g transform="translate(792.788153, 308.512551)"><path style="stroke:none" d="M 41.5625 -64.453125 L 41.5625 -51.5625 L 19.375 -51.5625 L 19.375 -38.75 L 40.625 -38.75 L 40.625 -25.859375 L 19.375 -25.859375 L 19.375 -12.890625 L 41.5625 -12.890625 L 41.5625 0 L 4.6875 0 L 4.6875 -64.453125 Z M 41.5625 -64.453125 "/></g></g><g style="fill:#424141;fill-opacity:1;"><g transform="translate(469.572144, 393.96341)"><path style="stroke:none" d="M 41.5625 -64.453125 L 41.5625 -51.5625 L 19.375 -51.5625 L 19.375 -38.75 L 40.625 -38.75 L 40.625 -25.859375 L 19.375 -25.859375 L 19.375 -12.890625 L 41.5625 -12.890625 L 41.5625 0 L 4.6875 0 L 4.6875 -64.453125 Z M 41.5625 -64.453125 "/></g></g><g style="fill:#424141;fill-opacity:1;"><g transform="translate(514.881228, 393.96341)"><path style="stroke:none" d="M 57.96875 0 L 54.921875 -38.203125 L 54.53125 -38.203125 L 41.328125 -0.390625 L 32.578125 -0.390625 L 19.375 -38.203125 L 18.984375 -38.203125 L 15.9375 0 L 1.25 0 L 7.03125 -64.453125 L 22.65625 -64.453125 L 36.953125 -27.265625 L 51.25 -64.453125 L 66.875 -64.453125 L 72.65625 0 Z M 57.96875 0 "/></g></g><g style="fill:#424141;fill-opacity:1;"><g transform="translate(588.781912, 393.96341)"><path style="stroke:none" d="M 4.6875 -64.453125 L 28.203125 -64.453125 C 34.765625 -64.453125 40.078125 -62.757812 44.140625 -59.375 C 48.203125 -55.988281 50.234375 -51.066406 50.234375 -44.609375 C 50.234375 -38.148438 48.175781 -33.082031 44.0625 -29.40625 C 39.945312 -25.738281 34.660156 -23.90625 28.203125 -23.90625 L 19.375 -23.90625 L 19.375 0 L 4.6875 0 Z M 19.375 -35.625 L 23.515625 -35.625 C 26.796875 -35.625 29.488281 -36.285156 31.59375 -37.609375 C 33.707031 -38.941406 34.765625 -41.117188 34.765625 -44.140625 C 34.765625 -47.210938 33.707031 -49.410156 31.59375 -50.734375 C 29.488281 -52.066406 26.796875 -52.734375 23.515625 -52.734375 L 19.375 -52.734375 Z M 19.375 -35.625 "/></g></g><g style="fill:#424141;fill-opacity:1;"><g transform="translate(640.809243, 393.96341)"><path style="stroke:none" d="M 37.421875 -64.453125 L 63.4375 0 L 47.65625 0 L 42.890625 -12.890625 L 18.359375 -12.890625 L 13.59375 0 L -2.1875 0 L 23.828125 -64.453125 Z M 37.890625 -25.78125 L 30.703125 -44.53125 L 30.546875 -44.53125 L 23.359375 -25.78125 Z M 37.890625 -25.78125 "/></g></g><g style="fill:#424141;fill-opacity:1;"><g transform="translate(702.054628, 393.96341)"><path style="stroke:none" d="M 0.625 -51.5625 L 0.625 -64.453125 L 45.9375 -64.453125 L 45.9375 -51.5625 L 30.625 -51.5625 L 30.625 0 L 15.9375 0 L 15.9375 -51.5625 Z M 0.625 -51.5625 "/></g></g><g style="fill:#424141;fill-opacity:1;"><g transform="translate(748.613637, 393.96341)"><path style="stroke:none" d="M 4.375 -76.25 L 20.234375 -90 L 27.34375 -81.015625 L 8.75 -70.234375 Z M 19.375 -64.453125 L 19.375 0 L 4.6875 0 L 4.6875 -64.453125 Z M 19.375 -64.453125 "/></g></g><g style="fill:#424141;fill-opacity:1;"><g transform="translate(772.674324, 393.96341)"><path style="stroke:none" d="M 37.421875 -64.453125 L 63.4375 0 L 47.65625 0 L 42.890625 -12.890625 L 18.359375 -12.890625 L 13.59375 0 L -2.1875 0 L 23.828125 -64.453125 Z M 37.890625 -25.78125 L 30.703125 -44.53125 L 30.546875 -44.53125 L 23.359375 -25.78125 Z M 37.890625 -25.78125 "/></g></g></g></svg>

<svg xmlns="http://www.w3.org/2000/svg" width="1739" viewBox="0 0 1304.25 660.75" height="881" version="1.2"><defs><clipPath id="f"><path d="M0 .066h434V131H0zm0 0"/></clipPath><clipPath id="a"><path d="M0 .066h1303.5v660.368H0zm0 0"/></clipPath><clipPath id="c"><path d="M0 528h276v132.434H0zm0 0"/></clipPath><clipPath id="d"><path d="m-337.664 535.375 548.809-144.14L337.96 874.07l-548.813 144.14zm0 0"/></clipPath><clipPath id="e"><path d="m-337.664 535.375 548.809-144.14L337.96 874.07l-548.813 144.14zm0 0"/></clipPath><clipPath id="b"><path d="M927 .066h376.5V224H927zm0 0"/></clipPath><clipPath id="g"><path d="M-179.61-274.355 369.204-418.5 496.016 64.336-52.793 208.48zm0 0"/></clipPath><clipPath id="h"><path d="M-179.61-274.355 369.204-418.5 496.016 64.336-52.793 208.48zm0 0"/></clipPath><clipPath id="i"><path d="M981 487h322.5v173.434H981zm0 0"/></clipPath><clipPath id="j"><path d="m1009.066 413.238 560.207 90.215-79.367 492.863L929.7 906.102zm0 0"/></clipPath><clipPath id="k"><path d="m1009.066 413.238 560.207 90.215-79.367 492.863L929.7 906.102zm0 0"/></clipPath></defs><g clip-path="url(#a)"><path style="stroke:none;fill-rule:nonzero;fill:#fff;fill-opacity:1" d="M0 .066h1303.5v660.368H0zm0 0"/><path style="stroke:none;fill-rule:nonzero;fill:#fff;fill-opacity:1" d="M0 .066h1303.5v660.368H0zm0 0"/></g><g clip-path="url(#b)"><path style="stroke:none;fill-rule:evenodd;fill:#e0eaff;fill-opacity:1" d="M1243.52-270.836c-20.645 4.203-33.56 8.418-46.454 20.43-41.304 36.656-44.746 70.906-76.566 121.386-40.441 65.5-59.363 73.313-111.84 118.993-6.887 5.402-12.05 10.82-18.062 16.226-49.035 42.668-92.918 124.992-37.86 177.875 11.188 10.215 23.227 18.633 39.578 27.035 15.48 7.813 30.114 16.825 52.48 10.825 15.493-4.204 30.11-14.43 43.884-21.633 14.632-7.809 29.25-16.227 47.312-19.836 17.203-3.606 42.164-5.403 60.223-1.797 37 7.215 89.476 54.086 154.867 22.836 90.336-43.266 49.895-112.98 80.867-184.496 11.188-26.442 36.137-66.703 20.645-103.969-9.469-24.035-24.95-31.25-34.414-39.668-5.168-4.808 5.164-3-11.192-11.418-6.886-3.605-26.668-22.832-33.554-33.656-4.305-6.606-6.887-13.82-10.329-22.832-12.05-34.86-32.695-49.883-64.527-67.3-18.062-9.622-31.836-13.228-55.058-9.013zm0 0"/></g><g clip-path="url(#c)"><g clip-path="url(#d)"><g clip-path="url(#e)"><path style="stroke:none;fill-rule:nonzero;fill:#f0cdcd;fill-opacity:1" d="M-241.953 596.496c-7.86 11.723-13.824 25.496-17.395 41.668-23.054 104.356 22.403 280.645 146.383 298.895 52.7 7.754 112.528 1.043 165.445-2.989 79.313-6.047 138.368-33.937 176.282-107.554 30.078-58.399 57.468-132.805 42.68-199.278-8.024-36.074-31.387-70.172-65.72-83.843-28.28-11.258-59.91-7.782-90.324-6.63-103.785 3.93-287.164-44.937-357.351 59.731"/></g></g></g><g clip-path="url(#f)"><g clip-path="url(#g)"><g clip-path="url(#h)"><path style="stroke:none;fill-rule:nonzero;fill:#f0e8cd;fill-opacity:1" d="M-83.895-213.234c-7.859 11.718-13.824 25.496-17.398 41.668-23.05 104.351 22.402 280.64 146.387 298.89 52.695 7.758 112.523 1.047 165.445-2.988 79.313-6.043 138.367-33.938 176.281-107.55 30.075-58.4 57.465-132.806 42.676-199.278-8.023-36.074-31.383-70.172-65.715-83.844-28.281-11.262-59.91-7.785-90.324-6.633-103.785 3.93-287.168-44.937-357.352 59.735"/></g></g></g><g clip-path="url(#i)"><g clip-path="url(#j)"><g clip-path="url(#k)"><path style="stroke:none;fill-rule:nonzero;fill:#eaf5e6;fill-opacity:1" d="M1071.871 507.86c-11.93 7.538-22.96 17.722-32.77 31.066-63.3 86.105-93.05 265.715 12.95 332.562 45.054 28.414 102.48 46.48 152.508 64.203 74.98 26.559 140.27 24.942 204.722-27.043 51.133-41.238 106.285-98.199 119.653-164.972 7.257-36.239-.313-76.871-26.18-103.266-21.309-21.738-51.637-31.355-79.918-42.605-96.5-38.395-244.438-157.274-350.965-89.946"/></g></g></g><g style="fill:#424141;fill-opacity:1"><path style="stroke:none" d="m57.969 0-3.047-38.203h-.39L41.327-.391h-8.75L19.375-38.203h-.39L15.937 0H1.25l5.781-64.453h15.625l14.297 37.187L51.25-64.453h15.625L72.656 0zm0 0" transform="translate(465.391 308.513)"/></g><g style="fill:#424141;fill-opacity:1"><path style="stroke:none" d="M37.422-64.453 63.438 0H47.656l-4.765-12.89H18.359L13.594 0H-2.187l26.015-64.453zm.469 38.672-7.188-18.75h-.156l-7.188 18.75zm0 0" transform="translate(539.292 308.513)"/></g><g style="fill:#424141;fill-opacity:1"><path style="stroke:none" d="M4.688-64.453h23.515c6.563 0 11.875 1.695 15.938 5.078 4.062 3.387 6.093 8.309 6.093 14.766 0 6.46-2.058 11.527-6.172 15.203-4.117 3.668-9.402 5.5-15.859 5.5h-8.828V0H4.687zm14.687 28.828h4.14c3.282 0 5.973-.66 8.079-1.984 2.113-1.332 3.172-3.508 3.172-6.532 0-3.07-1.059-5.27-3.172-6.593-2.106-1.332-4.797-2-8.078-2h-4.141zm0 0" transform="translate(600.537 308.513)"/></g><g style="fill:#424141;fill-opacity:1"><path style="stroke:none" d="M37.422-64.453 63.438 0H47.656l-4.765-12.89H18.359L13.594 0H-2.187l26.015-64.453zm.469 38.672-7.188-18.75h-.156l-7.188 18.75zm0 0" transform="translate(652.564 308.513)"/></g><g style="fill:#424141;fill-opacity:1"><path style="stroke:none" d="M4.688-64.453h18.671c8.957 0 16.614 3.062 22.97 9.187 6.35 6.118 9.53 13.782 9.53 23 0 9.274-3.168 16.97-9.5 23.094C40.035-3.055 32.367 0 23.36 0H4.687zm14.687 51.328h2.266c5.363 0 9.75-1.805 13.156-5.422 3.414-3.625 5.148-8.172 5.203-13.64 0-5.47-1.71-10.024-5.125-13.672-3.406-3.645-7.82-5.47-13.234-5.47h-2.266zm0 0" transform="translate(735.136 308.513)"/></g><g style="fill:#424141;fill-opacity:1"><path style="stroke:none" d="M41.563-64.453v12.89H19.375v12.813h21.25v12.89h-21.25v12.97h22.188V0H4.687v-64.453zm0 0" transform="translate(792.788 308.513)"/></g><g style="fill:#424141;fill-opacity:1"><path style="stroke:none" d="M41.563-64.453v12.89H19.375v12.813h21.25v12.89h-21.25v12.97h22.188V0H4.687v-64.453zm0 0" transform="translate(469.572 393.963)"/></g><g style="fill:#424141;fill-opacity:1"><path style="stroke:none" d="m57.969 0-3.047-38.203h-.39L41.327-.391h-8.75L19.375-38.203h-.39L15.937 0H1.25l5.781-64.453h15.625l14.297 37.187L51.25-64.453h15.625L72.656 0zm0 0" transform="translate(514.881 393.963)"/></g><g style="fill:#424141;fill-opacity:1"><path style="stroke:none" d="M4.688-64.453h23.515c6.563 0 11.875 1.695 15.938 5.078 4.062 3.387 6.093 8.309 6.093 14.766 0 6.46-2.058 11.527-6.172 15.203-4.117 3.668-9.402 5.5-15.859 5.5h-8.828V0H4.687zm14.687 28.828h4.14c3.282 0 5.973-.66 8.079-1.984 2.113-1.332 3.172-3.508 3.172-6.532 0-3.07-1.059-5.27-3.172-6.593-2.106-1.332-4.797-2-8.078-2h-4.141zm0 0" transform="translate(588.782 393.963)"/></g><g style="fill:#424141;fill-opacity:1"><path style="stroke:none" d="M37.422-64.453 63.438 0H47.656l-4.765-12.89H18.359L13.594 0H-2.187l26.015-64.453zm.469 38.672-7.188-18.75h-.156l-7.188 18.75zm0 0" transform="translate(640.81 393.963)"/></g><g style="fill:#424141;fill-opacity:1"><path style="stroke:none" d="M.625-51.563v-12.89h45.313v12.89H30.624V0H15.937v-51.563zm0 0" transform="translate(702.055 393.963)"/></g><g style="fill:#424141;fill-opacity:1"><path style="stroke:none" d="M4.375-76.25 20.235-90l7.109 8.984L8.75-70.234zm15 11.797V0H4.687v-64.453zm0 0" transform="translate(748.614 393.963)"/></g><g style="fill:#424141;fill-opacity:1"><path style="stroke:none" d="M37.422-64.453 63.438 0H47.656l-4.765-12.89H18.359L13.594 0H-2.187l26.015-64.453zm.469 38.672-7.188-18.75h-.156l-7.188 18.75zm0 0" transform="translate(772.674 393.963)"/></g></svg>
